docs/icons/cb.svg

<?xml version="1.0" standalone="no"?><!DOCTYPE svg PUBLIC "-//W3C//DTD SVG 1.1//EN" "http://www.w3.org/Graphics/SVG/1.1/DTD/svg11.dtd"><svg t="1670938282066" class="icon" viewBox="0 0 1024 1024" version="1.1" xmlns="http://www.w3.org/2000/svg" p-id="32258" xmlns:xlink="http://www.w3.org/1999/xlink" width="128" height="128"><path d="M531.187229 256.51086C524.791486 218.136403 524.791486 134.991746 550.374457 90.221546 563.165943 71.034318 575.957428 64.638575 588.748914 64.638575c127.914857-6.395743 127.914857 31.978714 127.914857 51.165943S710.268028 141.387489 703.872285 147.783232c-25.582971 19.187229-83.144657 19.187229-127.914857 19.187229 0 19.187229 0 44.7702 0 63.957428 44.7702 6.395743 127.914857 6.395743 172.685057-31.978714 25.582971-19.187229 31.978714-51.165943 31.978714-83.144657C774.225456 32.659861 710.268028-5.714596 582.353171 0.681147c-38.374457 0-63.957428 19.187229-83.144657 51.165943C460.834057 109.408775 460.834057 205.344917 467.2298 256.51086 205.004344 288.489574 0.340573 557.110773 0.340573 825.731972c0 89.5404 57.561686 102.331885 140.706342 102.331885 51.165943 0 115.123371-6.395743 172.685057-6.395743 25.582971 0 44.7702 0 70.353171 6.395743 127.914857 12.791486 204.663771 95.936143 319.787142 95.936143 76.748914 0 140.706342-51.165943 191.872285-70.353171 51.165943-25.582971 127.914857-44.7702 127.914857-108.727628C1023.659427 569.902259 806.20417 269.302346 531.187229 256.51086zM313.731972 857.710686 313.731972 857.710686C320.127715 787.357515 345.710686 704.212858 409.668115 704.212858l0 0c12.791486 0 25.582971 0 31.978714 12.791486 31.978714 31.978714 38.374457 102.331885 38.374457 172.685057-25.582971-6.395743-57.561686-19.187229-89.5404-19.187229C371.293658 857.710686 345.710686 857.710686 313.731972 857.710686zM543.978714 908.876629c6.395743-83.144657-6.395743-185.476542-57.561686-236.642485C467.2298 646.651173 435.251086 640.25543 409.668115 640.25543l0 0c-63.957428 0-140.706342 38.374457-159.893571 223.850999-6.395743 0-19.187229 0-25.582971 0-25.582971 0-51.165943 0-76.748914 0C64.298002 864.106429 64.298002 851.314943 64.298002 825.731972 64.298002 595.48523 243.378801 333.259774 492.812771 320.468288 499.208514 326.864031 505.604257 333.259774 512 346.05126c38.374457 44.7702 108.727628 127.914857 153.497828 268.621199C703.872285 736.191572 703.872285 851.314943 703.872285 960.042572c-44.7702 0-89.5404-19.187229-134.3106-38.374457C556.7702 915.272372 550.374457 915.272372 543.978714 908.876629zM902.140313 876.897915c-12.791486 6.395743-25.582971 12.791486-38.374457 12.791486-12.791486 6.395743-25.582971 12.791486-38.374457 19.187229-19.187229 12.791486-38.374457 19.187229-57.561686 31.978714 0-108.727628 0-223.850999-38.374457-351.765856S627.123371 371.634231 582.353171 320.468288c217.455256 44.7702 377.348827 294.20417 377.348827 518.05517C959.701998 851.314943 921.327541 870.502172 902.140313 876.897915z" p-id="32259" fill="#ffffff"></path></svg>

<svg xmlns="http://www.w3.org/2000/svg" viewBox="0 0 1024 1024" width="128" height="128" xmlns:v="https://vecta.io/nano"><path d="M531.187 256.511c-6.396-38.374-6.396-121.519 19.187-166.289 12.791-19.187 25.583-25.583 38.374-25.583 127.915-6.396 127.915 31.979 127.915 51.166s-6.396 25.583-12.791 31.979c-25.583 19.187-83.145 19.187-127.915 19.187v63.957c44.77 6.396 127.915 6.396 172.685-31.979 25.583-19.187 31.979-51.166 31.979-83.145C774.225 32.66 710.268-5.715 582.353.681c-38.374 0-63.957 19.187-83.145 51.166-38.374 57.562-38.374 153.498-31.979 204.664C205.004 288.49.341 557.111.341 825.732c0 89.54 57.562 102.332 140.706 102.332 51.166 0 115.123-6.396 172.685-6.396 25.583 0 44.77 0 70.353 6.396C512 940.855 588.749 1024 703.872 1024c76.749 0 140.706-51.166 191.872-70.353 51.166-25.583 127.915-44.77 127.915-108.728 0-275.017-217.455-575.617-492.472-588.408zm-217.455 601.2h0c6.396-70.353 31.979-153.498 95.936-153.498h0c12.791 0 25.583 0 31.979 12.791 31.979 31.979 38.374 102.332 38.374 172.685-25.583-6.396-57.562-19.187-89.54-19.187-19.187-12.791-44.77-12.791-76.749-12.791zm230.247 51.166c6.396-83.145-6.396-185.477-57.562-236.642-19.187-25.583-51.166-31.979-76.749-31.979h0c-63.957 0-140.706 38.374-159.894 223.851h-25.583-76.749c-83.145 0-83.145-12.791-83.145-38.374 0-230.247 179.081-492.472 428.515-505.264 6.396 6.396 12.791 12.791 19.187 25.583 38.374 44.77 108.728 127.915 153.498 268.621 38.374 121.519 38.374 236.642 38.374 345.37-44.77 0-89.54-19.187-134.311-38.374-12.791-6.396-19.187-6.396-25.583-12.791zm358.162-31.979c-12.791 6.396-25.583 12.791-38.374 12.791l-38.374 19.187c-19.187 12.791-38.374 19.187-57.562 31.979 0-108.728 0-223.851-38.374-351.766S627.123 371.634 582.353 320.468c217.455 44.77 377.349 294.204 377.349 518.055 0 12.791-38.374 31.979-57.562 38.374z" fill="#fff"/></svg>
